public/assets/images/resource-not-found.svg

<?xml version="1.0" encoding="UTF-8"?>
<svg width="460px" height="298px" viewBox="0 0 460 298" version="1.1" xmlns="http://www.w3.org/2000/svg" xmlns:xlink="http://www.w3.org/1999/xlink">
    <!-- Generator: Sketch 49.3 (51167) - http://www.bohemiancoding.com/sketch -->
    <title>Page 1</title>
    <desc>Created with Sketch.</desc>
    <defs>
        <polygon id="path-1" points="0 384 563 384 563 0 0 0"></polygon>
    </defs>
    <g id="ZONE-" stroke="none" stroke-width="1" fill="none" fill-rule="evenodd">
        <g id="No-providers-Copy-2" transform="translate(-987.000000, -356.000000)">
            <g id="Page-1" transform="translate(958.000000, 326.000000)">
                <mask id="mask-2" fill="white">
                    <use xlink:href="#path-1"></use>
                </mask>
                <g id="Clip-12"></g>
                <path d="M142.784149,318.056895 L367.819585,318.056895 L367.819585,141.764819 L142.784149,141.764819 L142.784149,318.056895 Z M142.784149,131.970682 L367.819585,131.970682 L367.819585,92.7941364 L142.784149,92.7941364 L142.784149,131.970682 Z M133,327.853411 L377.603735,327.853411 L377.603735,83 L133,83 L133,327.853411 Z" id="Fill-11" fill="#303E51" mask="url(#mask-2)"></path>
                <polygon id="Fill-13" fill="#303E51" mask="url(#mask-2)" points="191 114.359005 304.975056 114.359005 304.975056 107 191 107"></polygon>
                <polygon id="Fill-14" fill="#303E51" mask="url(#mask-2)" points="162 114.359005 169.353287 114.359005 169.353287 107 162 107"></polygon>
                <polygon id="Fill-15" fill="#303E51" mask="url(#mask-2)" points="176 114.359005 183.353287 114.359005 183.353287 107 176 107"></polygon>
                <path d="M255.554805,173 C236.445998,173 221,188.4215 221,207.5 C221,226.5785 236.445998,242 255.554805,242 C274.663613,242 290.109611,226.5785 290.109611,207.5 C290.109611,188.4215 274.663613,173 255.554805,173 L255.554805,173 Z M274.75192,221.261667 L269.338333,226.666667 L255.554805,212.905 L241.771277,226.666667 L236.357691,221.261667 L250.141219,207.5 L236.357691,193.738333 L241.771277,188.333333 L255.554805,202.095 L269.338333,188.333333 L274.75192,193.738333 L260.968392,207.5 L274.75192,221.261667 L274.75192,221.261667 Z" id="Shape" fill="#EA5744" mask="url(#mask-2)"></path>
                <rect id="Rectangle-2" fill="#34495E" mask="url(#mask-2)" x="212" y="264" width="87" height="9"></rect>
                <rect id="Rectangle-2-Copy" fill="#34495E" mask="url(#mask-2)" x="200" y="280" width="110" height="9"></rect>
                <path d="M43.2176315,55.7464938 C42.1995215,55.7464938 41.2431152,56.3807894 40.8823863,57.3951873 C40.4255421,58.6815958 41.1007223,60.1010401 42.3870056,60.5583506 C43.0087884,60.7792851 43.6815953,60.7460261 44.2784593,60.4609494 C44.8741366,60.1770606 45.3250478,59.6781764 45.5469436,59.0545711 L45.5469436,59.0533833 C45.7676527,58.4297781 45.7332411,57.7574722 45.4508283,57.159999 C45.1672289,56.5625258 44.6676668,56.1123422 44.0435108,55.8902199 C43.7705909,55.7928187 43.491738,55.7464938 43.2176315,55.7464938 M43.2200047,65.4497914 C42.4059914,65.4497914 41.5884183,65.3108165 40.7993237,65.0293033 C37.0508281,63.695382 35.0846182,59.5570188 36.4171793,55.8058848 C37.7497404,52.0511873 41.8862569,50.0817825 45.6311927,51.4192673 C47.4467034,52.0654411 48.9038584,53.3803573 49.7309244,55.1228885 C50.559177,56.864232 50.6588521,58.825322 50.0133372,60.6438736 C49.3690089,62.4612375 48.0542469,63.9175042 46.3134925,64.7466023 C45.3297942,65.2146031 44.2784593,65.4497914 43.2200047,65.4497914" id="Fill-20" fill="#303E51" mask="url(#mask-2)"></path>
                <path d="M481.214578,313.745339 C479.849979,313.745339 478.739314,314.857138 478.739314,316.221943 C478.739314,317.587935 479.849979,318.699734 481.214578,318.699734 C482.579178,318.699734 483.689843,317.587935 483.689843,316.221943 C483.689843,314.857138 482.579178,313.745339 481.214578,313.745339 M481.214578,323.445073 C477.235881,323.445073 474,320.204701 474,316.221943 C474,312.240372 477.235881,309 481.214578,309 C485.193276,309 488.429157,312.240372 488.429157,316.221943 C488.429157,320.204701 485.193276,323.445073 481.214578,323.445073" id="Fill-21" fill="#303E51" mask="url(#mask-2)"></path>
                <path d="M477.991707,40.0131978 L482.347746,41.3566216 L481.330822,36.9094254 L477.991707,40.0131978 Z M485.572947,47.2054449 C485.339185,47.2054449 485.104237,47.1709982 484.875221,47.1009168 L472.673328,43.3390924 C471.864061,43.0896503 471.248212,42.4256592 471.059541,41.6001246 C470.87087,40.7745901 471.137857,39.9086697 471.757267,39.3325772 L481.11486,30.6341749 C481.734269,30.0580824 482.614733,29.8549653 483.425186,30.1055952 C484.23564,30.3550373 484.849116,31.0190284 485.037787,31.844563 L487.883274,44.3036019 C488.071944,45.1315121 487.806144,45.9950569 487.185548,46.5711493 C486.74057,46.9845105 486.162691,47.2054449 485.572947,47.2054449 L485.572947,47.2054449 Z" id="Fill-22" fill="#303E51" mask="url(#mask-2)"></path>
                <path d="M40.077956,304.982955 L43.731523,307.707813 L44.2631235,303.177469 L40.077956,304.982955 Z M45.6075507,314.439186 C45.1056154,314.439186 44.6072399,314.27883 44.191927,313.968809 L33.9538706,306.332318 C33.2751306,305.826306 32.9167749,304.996021 33.01645,304.153857 C33.1149385,303.311693 33.6548453,302.585935 34.4320737,302.25097 L46.158137,297.193234 C46.9318056,296.858269 47.8324413,296.963985 48.5111812,297.469996 C49.1911078,297.977195 49.5482769,298.807481 49.4486018,299.649645 L47.9617816,312.342684 C47.8632931,313.184848 47.3221997,313.910606 46.5449713,314.245571 C46.2435728,314.375043 45.9255617,314.439186 45.6075507,314.439186 L45.6075507,314.439186 Z" id="Fill-23" fill="#303E51" mask="url(#mask-2)"></path>
                <path d="M435.077956,195.982955 L438.731523,198.707813 L439.263124,194.177469 L435.077956,195.982955 Z M440.607551,205.439186 C440.105615,205.439186 439.60724,205.27883 439.191927,204.968809 L428.953871,197.332318 C428.275131,196.826306 427.916775,195.996021 428.01645,195.153857 C428.114939,194.311693 428.654845,193.585935 429.432074,193.25097 L441.158137,188.193234 C441.931806,187.858269 442.832441,187.963985 443.511181,188.469996 C444.191108,188.977195 444.548277,189.807481 444.448602,190.649645 L442.961782,203.342684 C442.863293,204.184848 442.3222,204.910606 441.544971,205.245571 C441.243573,205.375043 440.925562,205.439186 440.607551,205.439186 L440.607551,205.439186 Z" id="Fill-23-Copy" fill="#303E51" mask="url(#mask-2)"></path>
                <path d="M95.2532114,126.453617 C94.2873123,126.453617 93.3795569,125.857332 93.0271343,124.895198 L88.3483377,112.09763 C87.8986132,110.865862 88.5298888,109.503433 89.759215,109.053249 C90.986168,108.606629 92.3495809,109.234985 92.8004921,110.466754 L97.4792886,123.264322 C97.9290131,124.496091 97.2977375,125.85852 96.0684113,126.308703 C95.7990512,126.406104 95.5249447,126.453617 95.2532114,126.453617" id="Fill-24" fill="#303E51" mask="url(#mask-2)"></path>
                <path d="M464.018211,122.698116 C463.052312,122.698116 462.144557,122.101831 461.792134,121.139697 L457.113338,108.342129 C456.663613,107.11036 457.294889,105.747931 458.524215,105.297748 C459.751168,104.851128 461.114581,105.479484 461.565492,106.711253 L466.244289,119.508821 C466.694013,120.740589 466.062738,122.103018 464.833411,122.553202 C464.564051,122.650603 464.289945,122.698116 464.018211,122.698116" id="Fill-24-Copy" fill="#303E51" mask="url(#mask-2)"></path>
                <path d="M86.8210816,122.094648 C85.8551824,122.094648 84.9474271,121.498363 84.5950044,120.536229 C84.1452798,119.306836 84.7765555,117.943219 86.0058817,117.493035 L98.7915861,112.808275 C100.018539,112.362843 101.381952,112.990012 101.831677,114.22178 C102.281401,115.451174 101.650125,116.81479 100.420799,117.264974 L87.6362815,121.949734 C87.3669214,122.047135 87.0928149,122.094648 86.8210816,122.094648" id="Fill-25" fill="#303E51" mask="url(#mask-2)"></path>
                <path d="M455.586082,118.339147 C454.620182,118.339147 453.712427,117.742861 453.360004,116.780728 C452.91028,115.551334 453.541555,114.187718 454.770882,113.737534 L467.556586,109.052774 C468.783539,108.607342 470.146952,109.23451 470.596677,110.466279 C471.046401,111.695672 470.415125,113.059289 469.185799,113.509473 L456.401281,118.194233 C456.131921,118.291634 455.857815,118.339147 455.586082,118.339147" id="Fill-25-Copy" fill="#303E51" mask="url(#mask-2)"></path>
                <path d="M41.0621858,164.235496 C40.3810726,164.235496 39.7047059,163.943293 39.2371822,163.377891 L30.546463,152.887069 C29.7099041,151.87861 29.8499239,150.383145 30.8561678,149.54692 C31.8635982,148.709507 33.3599113,148.84967 34.1940969,149.858129 L42.8848161,160.348951 C43.721375,161.35741 43.5813552,162.852874 42.5739247,163.689099 C42.1313198,164.057323 41.5949729,164.235496 41.0621858,164.235496" id="Fill-26" fill="#303E51" mask="url(#mask-2)"></path>
                <path d="M31.3713661,163.445245 C30.6902529,163.445245 30.0138862,163.153041 29.5463625,162.587639 C28.7098036,161.57918 28.8498234,160.083716 29.8572539,159.247491 L40.3361918,150.546713 C41.3424356,149.710488 42.8375621,149.848275 43.6729343,150.859109 C44.5094932,151.867568 44.3694734,153.363033 43.3620429,154.199258 L32.883105,162.898848 C32.4405001,163.267072 31.9041532,163.445245 31.3713661,163.445245" id="Fill-27" fill="#303E51" mask="url(#mask-2)"></path>
            </g>
        </g>
    </g>
</svg>

<?xml version="1.0" encoding="UTF-8" standalone="no"?>
<svg
   width="460px"
   height="298px"
   viewBox="0 0 460 298"
   version="1.1"
   id="svg34"
   sodipodi:docname="resource-not-found.svg"
   inkscape:version="1.1.1 (3bf5ae0d25, 2021-09-20)"
   xmlns:inkscape="http://www.inkscape.org/namespaces/inkscape"
   xmlns:sodipodi="http://sodipodi.sourceforge.net/DTD/sodipodi-0.dtd"
   xmlns:xlink="http://www.w3.org/1999/xlink"
   xmlns="http://www.w3.org/2000/svg"
   xmlns:svg="http://www.w3.org/2000/svg">
  <sodipodi:namedview
     id="namedview36"
     pagecolor="#ffffff"
     bordercolor="#666666"
     borderopacity="1.0"
     inkscape:pageshadow="2"
     inkscape:pageopacity="0.0"
     inkscape:pagecheckerboard="0"
     showgrid="false"
     inkscape:zoom="2.9295302"
     inkscape:cx="229.90034"
     inkscape:cy="149"
     inkscape:window-width="2560"
     inkscape:window-height="1376"
     inkscape:window-x="0"
     inkscape:window-y="27"
     inkscape:window-maximized="1"
     inkscape:current-layer="svg34" />
  <!-- Generator: Sketch 49.3 (51167) - http://www.bohemiancoding.com/sketch -->
  <title
     id="title2">Page 1</title>
  <desc
     id="desc4">Created with Sketch.</desc>
  <defs
     id="defs7">
    <polygon
       id="path-1"
       points="0 384 563 384 563 0 0 0" />
    <mask
       id="mask-2"
       fill="#ffffff">
      <use
         xlink:href="#path-1"
         id="use9"
         x="0"
         y="0"
         width="100%"
         height="100%" />
    </mask>
  </defs>
  <g
     id="Clip-12"
     transform="translate(-29,-30)"
     style="fill:none;fill-rule:evenodd;stroke:none;stroke-width:1" />
  <g
     id="g926"
     transform="translate(3.698135)">
    <path
       d="M 142.78415,318.05689 H 367.81959 V 141.76482 H 142.78415 Z m 0,-186.08621 H 367.81959 V 92.794136 H 142.78415 Z M 133,327.85341 H 377.60373 V 83 H 133 Z"
       id="Fill-11"
       fill="#303e51"
       mask="url(#mask-2)"
       transform="translate(-29,-30)"
       style="fill-rule:evenodd;stroke:none;stroke-width:1" />
    <polygon
       id="Fill-13"
       fill="#303e51"
       mask="url(#mask-2)"
       points="191,107 191,114.359 304.97506,114.359 304.97506,107 "
       transform="translate(-29,-30)"
       style="fill-rule:evenodd;stroke:none;stroke-width:1" />
    <polygon
       id="Fill-14"
       fill="#303e51"
       mask="url(#mask-2)"
       points="162,107 162,114.359 169.35329,114.359 169.35329,107 "
       transform="translate(-29,-30)"
       style="fill-rule:evenodd;stroke:none;stroke-width:1" />
    <polygon
       id="Fill-15"
       fill="#303e51"
       mask="url(#mask-2)"
       points="176,107 176,114.359 183.35329,114.359 183.35329,107 "
       transform="translate(-29,-30)"
       style="fill-rule:evenodd;stroke:none;stroke-width:1" />
    <path
       d="M 255.5548,173 C 236.446,173 221,188.4215 221,207.5 c 0,19.0785 15.446,34.5 34.5548,34.5 19.10881,0 34.55481,-15.4215 34.55481,-34.5 0,-19.0785 -15.446,-34.5 -34.55481,-34.5 z m 19.19712,48.26167 -5.41359,5.405 -13.78353,-13.76167 -13.78352,13.76167 -5.41359,-5.405 13.78353,-13.76167 -13.78353,-13.76167 5.41359,-5.405 13.78352,13.76167 13.78353,-13.76167 5.41359,5.405 L 260.96839,207.5 Z"
       id="Shape"
       fill="#ea5744"
       mask="url(#mask-2)"
       transform="translate(-29,-30)"
       style="fill-rule:evenodd;stroke:none;stroke-width:1" />
    <rect
       id="Rectangle-2"
       fill="#34495e"
       mask="url(#mask-2)"
       x="212"
       y="264"
       width="87"
       height="9"
       transform="translate(-29,-30)"
       style="fill-rule:evenodd;stroke:none;stroke-width:1" />
    <rect
       id="Rectangle-2-Copy"
       fill="#34495e"
       mask="url(#mask-2)"
       x="200"
       y="280"
       width="110"
       height="9"
       transform="translate(-29,-30)"
       style="fill-rule:evenodd;stroke:none;stroke-width:1" />
  </g>
  <path
     d="m 43.217632,55.746494 c -1.01811,0 -1.974517,0.634295 -2.335246,1.648693 -0.456844,1.286409 0.218336,2.705853 1.50462,3.163164 0.621782,0.220934 1.294589,0.187675 1.891453,-0.0974 0.595678,-0.283888 1.046589,-0.782773 1.268485,-1.406378 v -0.0012 c 0.220709,-0.623605 0.186297,-1.295911 -0.09612,-1.893384 -0.283599,-0.597473 -0.783161,-1.047657 -1.407317,-1.269779 -0.27292,-0.0974 -0.551773,-0.143726 -0.825879,-0.143726 m 0.0024,9.703297 c -0.814014,0 -1.631587,-0.138974 -2.420681,-0.420488 -3.748496,-1.333921 -5.714706,-5.472284 -4.382145,-9.223418 1.332561,-3.754698 5.469078,-5.724102 9.214014,-4.386618 1.81551,0.646174 3.272665,1.96109 4.099731,3.703622 0.828253,1.741343 0.927928,3.702433 0.282413,5.520985 -0.644328,1.817364 -1.95909,3.27363 -3.699844,4.102728 -0.983699,0.468001 -2.035034,0.703189 -3.093488,0.703189"
     id="Fill-20"
     fill="#303e51"
     mask="url(#mask-2)"
     transform="translate(-29,-30)"
     style="fill-rule:evenodd;stroke:none;stroke-width:1" />
  <path
     d="m 481.21458,313.74534 c -1.3646,0 -2.47527,1.1118 -2.47527,2.4766 0,1.366 1.11067,2.47779 2.47527,2.47779 1.3646,0 2.47526,-1.11179 2.47526,-2.47779 0,-1.3648 -1.11066,-2.4766 -2.47526,-2.4766 m 0,9.69973 c -3.9787,0 -7.21458,-3.24037 -7.21458,-7.22313 0,-3.98157 3.23588,-7.22194 7.21458,-7.22194 3.9787,0 7.21458,3.24037 7.21458,7.22194 0,3.98276 -3.23588,7.22313 -7.21458,7.22313"
     id="Fill-21"
     fill="#303e51"
     mask="url(#mask-2)"
     transform="translate(-29,-30)"
     style="fill-rule:evenodd;stroke:none;stroke-width:1" />
  <path
     d="m 477.99171,40.013198 4.35604,1.343424 -1.01693,-4.447197 z m 7.58124,7.192247 c -0.23377,0 -0.46871,-0.03445 -0.69773,-0.104528 l -12.20189,-3.761825 c -0.80927,-0.249442 -1.42512,-0.913433 -1.61379,-1.738967 -0.18867,-0.825535 0.0783,-1.691455 0.69773,-2.267548 l 9.35759,-8.698402 c 0.61941,-0.576093 1.49987,-0.77921 2.31033,-0.52858 0.81045,0.249442 1.42393,0.913433 1.6126,1.738968 l 2.84548,12.459039 c 0.18867,0.82791 -0.0771,1.691455 -0.69772,2.267547 -0.44498,0.413361 -1.02286,0.634296 -1.6126,0.634296 z"
     id="Fill-22"
     fill="#303e51"
     mask="url(#mask-2)"
     transform="translate(-29,-30)"
     style="fill-rule:evenodd;stroke:none;stroke-width:1" />
  <path
     d="m 40.077956,304.98295 3.653567,2.72486 0.5316,-4.53034 z m 5.529595,9.45624 c -0.501936,0 -1.000311,-0.16036 -1.415624,-0.47038 l -10.238056,-7.63649 c -0.67874,-0.50601 -1.037096,-1.3363 -0.937421,-2.17846 0.09849,-0.84217 0.638395,-1.56793 1.415624,-1.90289 l 11.726063,-5.05774 c 0.773669,-0.33496 1.674304,-0.22925 2.353044,0.27677 0.679927,0.50719 1.037096,1.33748 0.937421,2.17965 l -1.48682,12.69303 c -0.09849,0.84217 -0.639582,1.56793 -1.416811,1.90289 -0.301398,0.12947 -0.619409,0.19362 -0.93742,0.19362 z"
     id="Fill-23"
     fill="#303e51"
     mask="url(#mask-2)"
     transform="translate(-29,-30)"
     style="fill-rule:evenodd;stroke:none;stroke-width:1" />
  <path
     d="m 435.07796,195.98295 3.65356,2.72486 0.5316,-4.53034 z m 5.52959,9.45624 c -0.50194,0 -1.00031,-0.16036 -1.41562,-0.47038 l -10.23806,-7.63649 c -0.67874,-0.50601 -1.0371,-1.3363 -0.93742,-2.17846 0.0985,-0.84217 0.6384,-1.56793 1.41562,-1.90289 l 11.72607,-5.05774 c 0.77367,-0.33496 1.6743,-0.22925 2.35304,0.27677 0.67993,0.50719 1.0371,1.33748 0.93742,2.17964 l -1.48682,12.69304 c -0.0985,0.84217 -0.63958,1.56793 -1.41681,1.90289 -0.3014,0.12947 -0.61941,0.19362 -0.93742,0.19362 z"
     id="Fill-23-Copy"
     fill="#303e51"
     mask="url(#mask-2)"
     transform="translate(-29,-30)"
     style="fill-rule:evenodd;stroke:none;stroke-width:1" />
  <path
     d="m 95.253211,126.45362 c -0.965899,0 -1.873654,-0.59629 -2.226077,-1.55842 l -4.678796,-12.79757 c -0.449725,-1.23177 0.181551,-2.5942 1.410877,-3.04438 1.226953,-0.44662 2.590366,0.18173 3.041277,1.4135 l 4.678797,12.79757 c 0.449724,1.23177 -0.181552,2.5942 -1.410878,3.04438 -0.26936,0.0974 -0.543466,0.14492 -0.8152,0.14492"
     id="Fill-24"
     fill="#303e51"
     mask="url(#mask-2)"
     transform="translate(-29,-30)"
     style="fill-rule:evenodd;stroke:none;stroke-width:1" />
  <path
     d="m 464.01821,122.69812 c -0.9659,0 -1.87365,-0.59629 -2.22608,-1.55842 l -4.67879,-12.79757 c -0.44973,-1.23177 0.18155,-2.5942 1.41088,-3.04438 1.22695,-0.44662 2.59036,0.18173 3.04127,1.4135 l 4.6788,12.79757 c 0.44972,1.23177 -0.18155,2.5942 -1.41088,3.04438 -0.26936,0.0974 -0.54347,0.14492 -0.8152,0.14492"
     id="Fill-24-Copy"
     fill="#303e51"
     mask="url(#mask-2)"
     transform="translate(-29,-30)"
     style="fill-rule:evenodd;stroke:none;stroke-width:1" />
  <path
     d="m 86.821082,122.09465 c -0.9659,0 -1.873655,-0.59629 -2.226078,-1.55842 -0.449724,-1.22939 0.181551,-2.59301 1.410878,-3.04319 l 12.785704,-4.68477 c 1.226954,-0.44543 2.590364,0.18174 3.040094,1.41351 0.44972,1.22939 -0.18155,2.59301 -1.41088,3.04319 l -12.784519,4.68476 c -0.26936,0.0974 -0.543466,0.14492 -0.815199,0.14492"
     id="Fill-25"
     fill="#303e51"
     mask="url(#mask-2)"
     transform="translate(-29,-30)"
     style="fill-rule:evenodd;stroke:none;stroke-width:1" />
  <path
     d="m 455.58608,118.33915 c -0.9659,0 -1.87365,-0.59629 -2.22608,-1.55842 -0.44972,-1.2294 0.18156,-2.59301 1.41088,-3.0432 l 12.78571,-4.68476 c 1.22695,-0.44543 2.59036,0.18174 3.04009,1.41351 0.44972,1.22939 -0.18156,2.59301 -1.41088,3.04319 l -12.78452,4.68476 c -0.26936,0.0974 -0.54346,0.14492 -0.8152,0.14492"
     id="Fill-25-Copy"
     fill="#303e51"
     mask="url(#mask-2)"
     transform="translate(-29,-30)"
     style="fill-rule:evenodd;stroke:none;stroke-width:1" />
  <path
     d="m 41.062186,164.2355 c -0.681113,0 -1.35748,-0.29221 -1.825004,-0.85761 l -8.690719,-10.49082 c -0.836559,-1.00846 -0.696539,-2.50392 0.309705,-3.34015 1.00743,-0.83741 2.503743,-0.69725 3.337929,0.31121 l 8.690719,10.49082 c 0.836559,1.00846 0.696539,2.50392 -0.310891,3.34015 -0.442605,0.36822 -0.978952,0.5464 -1.511739,0.5464"
     id="Fill-26"
     fill="#303e51"
     mask="url(#mask-2)"
     transform="translate(-29,-30)"
     style="fill-rule:evenodd;stroke:none;stroke-width:1" />
  <path
     d="m 31.371366,163.44524 c -0.681113,0 -1.35748,-0.2922 -1.825004,-0.8576 -0.836558,-1.00846 -0.696539,-2.50392 0.310892,-3.34015 l 10.478938,-8.70078 c 1.006244,-0.83622 2.50137,-0.69844 3.336742,0.3124 0.836559,1.00846 0.696539,2.50392 -0.310891,3.34015 l -10.478938,8.69959 c -0.442605,0.36822 -0.978952,0.54639 -1.511739,0.54639"
     id="Fill-27"
     fill="#303e51"
     mask="url(#mask-2)"
     transform="translate(-29,-30)"
     style="fill-rule:evenodd;stroke:none;stroke-width:1" />
</svg>
